images_sukapura_svg/cmd/lc_fullscreen.svg

<svg height="24" viewBox="0 0 24 24" width="24" xmlns="http://www.w3.org/2000/svg" xmlns:xlink="http://www.w3.org/1999/xlink"><linearGradient id="a" gradientUnits="userSpaceOnUse" x1="-17.694915" x2="-17.694915" y1="19.220339" y2="7.220339"><stop offset="0" stop-color="#0040dd"/><stop offset="1" stop-color="#0a84ff"/></linearGradient><linearGradient id="b" gradientUnits="userSpaceOnUse" x1="-42.898305" x2="-42.898305" y1="13.822928" y2="-.177072"><stop offset="0" stop-color="#f5f5f5"/><stop offset=".21428572" stop-color="#fdfdfd"/><stop offset="1" stop-color="#fff"/></linearGradient>


     /&amp;gt;
 <rect fill="#929292" height="20" ry="1" transform="rotate(90)" width="16" x="4" y="-22"/><path d="m21 5v14h-18v-14z" fill="url(#b)"/><g fill="url(#a)" fill-rule="evenodd"><path d="m8.8516862 6.5133237c.1983055.199846.1976726.5223718-.00143.7214422l-3.6151934 3.6142691c-.3063808.30722-.8321661.117235-.8712983-.314836l-.3615198-3.9756962c-.0295972-.3186665.2376535-.5858492.5564018-.5562592l3.9767107.361427c.1197669.011134.2317749.064124.316329.1496531z"/><path d="m15.148318 6.5133247c-.198306.199846-.197673.5223718.0014.7214422l3.61522 3.6142681c.306381.307221.832165.117235.871297-.314836l.36152-3.9756952c.0296-.3186665-.237653-.5858492-.556402-.5562592l-3.976706.361427c-.119767.011134-.231775.064124-.316329.1496531z"/><path d="m8.8516862 17.486676c.1983055-.199846.1976726-.522372-.00143-.721442l-3.6151934-3.614269c-.3063808-.30722-.8321661-.117235-.8712983.314836l-.3615198 3.975696c-.029597.318666.2376535.585849.5564018.556259l3.9767107-.361427c.1197669-.01113.2317749-.06412.316329-.149653z"/><path d="m15.148318 17.486675c-.198306-.199846-.197673-.522372.0014-.721442l3.61522-3.614268c.306381-.307221.832165-.117235.871297.314836l.36152 3.975695c.0296.318666-.237653.585849-.556402.556259l-3.976706-.361427c-.119767-.01113-.231775-.06412-.316329-.149653z"/></g></svg>

<?xml version="1.0" encoding="UTF-8" standalone="no"?>
<svg
   xmlns:dc="http://purl.org/dc/elements/1.1/"
   xmlns:cc="http://creativecommons.org/ns#"
   xmlns:rdf="http://www.w3.org/1999/02/22-rdf-syntax-ns#"
   xmlns:svg="http://www.w3.org/2000/svg"
   xmlns="http://www.w3.org/2000/svg"
   xmlns:xlink="http://www.w3.org/1999/xlink"
   xmlns:sodipodi="http://sodipodi.sourceforge.net/DTD/sodipodi-0.dtd"
   xmlns:inkscape="http://www.inkscape.org/namespaces/inkscape"
   viewBox="0 0 24 24"
   version="1.1"
   id="svg16"
   sodipodi:docname="lc_fullscreen.svg"
   inkscape:version="0.92.3 (unknown)"
   inkscape:export-filename="/home/rizmut/Dokumen/Rizmut/Github/libreoffice-style-sukapura/images_sukapura/cmd/lc_fullscreen.png"
   inkscape:export-xdpi="96"
   inkscape:export-ydpi="96"
   width="24"
   height="24"><metadata
   id="metadata22">
  <rdf:RDF>
    <cc:Work
       rdf:about="">
      <dc:format>image/svg+xml</dc:format>
      <dc:type
         rdf:resource="http://purl.org/dc/dcmitype/StillImage" />
      <dc:title></dc:title>
    </cc:Work>
  </rdf:RDF>
</metadata>
<defs
   id="defs20">
  <linearGradient
     y2="3"
     y1="20"
     x2="7"
     x1="7"
     gradientUnits="userSpaceOnUse"
     id="linearGradient2473"
     gradientTransform="translate(-53.898305,-5.1770724)">
    <stop
       id="stop2467"
       stop-color="#f5f5f5"
       offset="0" />
    <stop
       id="stop2469"
       stop-color="#fdfdfd"
       offset="0.21428572" />
    <stop
       id="stop2471"
       stop-color="#fff"
       offset="1" />
  </linearGradient>
  <linearGradient
     gradientTransform="translate(-53.898305,-5.1770724)"
     id="a"
     gradientUnits="userSpaceOnUse"
     x1="7"
     x2="7"
     y1="20"
     y2="3">
    <stop
       offset="0"
       stop-color="#f5f5f5"
       id="stop971" />
    <stop
       offset=".3888889"
       stop-color="#fdfdfd"
       id="stop973" />
    <stop
       offset="1"
       stop-color="#fff"
       id="stop975" />
  </linearGradient>
  <linearGradient
     gradientTransform="translate(-29.694915,1.220339)"
     id="a-6"
     gradientUnits="userSpaceOnUse"
     x1="14"
     x2="13.79661"
     y1="22"
     y2="2.1355929">
    <stop
       offset="0"
       stop-color="#0040dd"
       id="stop2" />
    <stop
       offset="1"
       stop-color="#0a84ff"
       id="stop4" />
  </linearGradient>
  <linearGradient
     inkscape:collect="always"
     xlink:href="#a-6"
     id="linearGradient2457"
     x1="12"
     y1="18"
     x2="12"
     y2="6"
     gradientUnits="userSpaceOnUse" />
  <linearGradient
     inkscape:collect="always"
     xlink:href="#linearGradient2473"
     id="linearGradient2465"
     x1="11"
     y1="19"
     x2="11"
     y2="5"
     gradientUnits="userSpaceOnUse" />
</defs>
<sodipodi:namedview
   pagecolor="#ffffff"
   bordercolor="#666666"
   borderopacity="1"
   objecttolerance="10"
   gridtolerance="10"
   guidetolerance="10"
   inkscape:pageopacity="0"
   inkscape:pageshadow="2"
   inkscape:window-width="1366"
   inkscape:window-height="706"
   id="namedview18"
   showgrid="true"
   inkscape:zoom="7.375"
   inkscape:cx="0.87522686"
   inkscape:cy="20.428512"
   inkscape:window-x="0"
   inkscape:window-y="0"
   inkscape:window-maximized="1"
   inkscape:current-layer="svg16">
  <inkscape:grid
     type="xygrid"
     id="grid2404" />
</sodipodi:namedview>


     /&gt;
 <g
   id="g2501">
  <rect
     id="rect2"
     y="-22"
     x="4"
     width="16"
     transform="rotate(90)"
     ry="1"
     height="20"
     style="fill:#929292;fill-opacity:1" />
  <path
     id="path4"
     d="M 21,5 V 19 H 3 V 5 Z"
     style="fill:url(#linearGradient2465);fill-opacity:1"
     inkscape:connector-curvature="0" />
  <g
     id="g14-3"
     style="fill:url(#linearGradient2457);fill-rule:evenodd;fill-opacity:1">
    <path
       style="fill-opacity:1.0;fill:url(#linearGradient2457)"
       id="path6-6"
       d="m 8.8516862,6.5133237 c 0.1983055,0.199846 0.1976726,0.5223718 -0.00143,0.7214422 L 5.2350628,10.849035 C 4.928682,11.156255 4.4028967,10.96627 4.3637645,10.534199 L 4.0022447,6.5585028 C 3.9726475,6.2398363 4.2398982,5.9726536 4.5586465,6.0022436 l 3.9767107,0.361427 c 0.1197669,0.011134 0.2317749,0.064124 0.316329,0.1496531 z"
       inkscape:connector-curvature="0" />
    <path
       style="fill-opacity:1.0;fill:url(#linearGradient2457)"
       id="path8-7"
       d="m 15.148318,6.5133247 c -0.198306,0.199846 -0.197673,0.5223718 0.0014,0.7214422 l 3.61522,3.6142681 c 0.306381,0.307221 0.832165,0.117235 0.871297,-0.314836 l 0.36152,-3.9756952 c 0.0296,-0.3186665 -0.237653,-0.5858492 -0.556402,-0.5562592 l -3.976706,0.361427 c -0.119767,0.011134 -0.231775,0.064124 -0.316329,0.1496531 z"
       inkscape:connector-curvature="0" />
    <path
       style="fill-opacity:1.0;fill:url(#linearGradient2457)"
       id="path10-5"
       d="M 8.8516862,17.486676 C 9.0499917,17.28683 9.0493588,16.964304 8.8502562,16.765234 L 5.2350628,13.150965 C 4.928682,12.843745 4.4028967,13.03373 4.3637645,13.465801 l -0.3615198,3.975696 c -0.029597,0.318666 0.2376535,0.585849 0.5564018,0.556259 l 3.9767107,-0.361427 c 0.1197669,-0.01113 0.2317749,-0.06412 0.316329,-0.149653 z"
       inkscape:connector-curvature="0" />
    <path
       style="fill-opacity:1.0;fill:url(#linearGradient2457)"
       id="path12-3"
       d="m 15.148318,17.486675 c -0.198306,-0.199846 -0.197673,-0.522372 0.0014,-0.721442 l 3.61522,-3.614268 c 0.306381,-0.307221 0.832165,-0.117235 0.871297,0.314836 l 0.36152,3.975695 c 0.0296,0.318666 -0.237653,0.585849 -0.556402,0.556259 l -3.976706,-0.361427 c -0.119767,-0.01113 -0.231775,-0.06412 -0.316329,-0.149653 z"
       inkscape:connector-curvature="0" />
  </g>
</g>
</svg>
